ui/StatusQ/src/assets/img/icons/tiny/reply.svg

<svg fill="none" height="17" viewBox="0 0 16 17" width="16" xmlns="http://www.w3.org/2000/svg"><path d="m8 5.58946v-1.465c0-.621.373-.812.824-.422l4.004 3.445c.227.195.226.51-.001.704l-4.005 3.44604c-.449.388-.822.198-.822-.423v-1.37504c-2.502 0-3.817 1.88704-4.476 3.53204-.103.257-.253.257-.324-.011-.129-.485-.2-.995-.2-1.521 0-2.97304 2.164-5.43404 5-5.91004z" fill="#000"/></svg>

<svg width="16" height="17" viewBox="0 0 16 17" fill="none" xmlns="http://www.w3.org/2000/svg">
<path d="M8 5.58946V4.12446C8 3.50346 8.373 3.31246 8.824 3.70246L12.828 7.14746C13.055 7.34246 13.054 7.65746 12.827 7.85146L8.822 11.2975C8.373 11.6855 8 11.4955 8 10.8745V9.49946C5.498 9.49946 4.183 11.3865 3.524 13.0315C3.421 13.2885 3.271 13.2885 3.2 13.0205C3.071 12.5355 3 12.0255 3 11.4995C3 8.52646 5.164 6.06546 8 5.58946Z" fill="black"/>
</svg>
